X:365
T:Trip to Durrow
Z: id:dc-reel-339
M:C
L:1/8
K:D Major
A,|D2FD ADFA|defd B3c|dBBA dBBA|FADE FEE2|!
D2FD ADFA|defd B3c|dBBA FAdB|AFEG FDD:|!
A|dcde fefg|afdf gfed|cdef gebe|gebe gfec|!
dcde fefg|afdf gfed|cdef gbag|fgec d3e|!
fdec d3e|fded B3c|dBBA dBBA|FADE FEE2|!
D2FD ADFA|defd B3c|dBBA FAdB|AFEG FDD:|!

